X: 08060
T: JUDY JACOBS' JIG
C: Bob McQuillen 15 Sept 91
B: Bob's Note Book 8 #60
%R: jig
Z: 2021 John Chambers <jc:trillian.mit.edu>
M: 6/8
L: 1/8
K: D
D \
| DFA dfe | dBd AFD | EFG Bef | ged cde |\
| dfd AFA | BGB A2G | FAd AFE | FDD D2 :|
|: e \
| fdf edc | Bcd ABc | dBd AFB | AGF EFE |\
| DFA AFD | GAB BGE | ABd cBc | edd d2 :|
%%begintext align
%% Judy
%% was the only camper to show up
%% at my tune composition class
%% today (at Buffalo Gap Dance Weekend)
%% so I thought she deserved this
%% tune as a reward!
%%endtext

%%sep 1 1 500

%%sep 1 1 500

